X:028
T:Sir Torquil Monroe
C:Adam Rennie (?)
S:78rpm record
Z:Nigel Gatherer
M:6/8
L:1/8
K:A
E|EAA A2B|cAA A2G|FBB BcA|GEE E2E|EAA A2B|cAA A2G|
FcB GFG|A3 A2:|d|cde ecA|dff f2A|GAB BGE|cee e2d|
cde ecA|dff f2A|GAB EFG|A3 A2d|cde ecA|dff f2A|
GAB BGE|cee e2e|efg agf|edc BAG|FGA BGE|A3 A2|]
<end>
<start>
